images/footer-logo.svg

<svg width="200" height="56" viewBox="0 0 200 56" fill="none" xmlns="http://www.w3.org/2000/svg">
<g clip-path="url(#clip0_1_486)">
<path d="M70.3945 27.2196V28.4999C70.3945 30.5533 70.1162 32.3964 69.5596 34.0292C69.0029 35.662 68.2174 37.0536 67.2031 38.204C66.1888 39.342 64.9766 40.2141 63.5664 40.8202C62.1686 41.4263 60.6162 41.7294 58.9092 41.7294C57.2145 41.7294 55.6621 41.4263 54.252 40.8202C52.8542 40.2141 51.6419 39.342 50.6152 38.204C49.5885 37.0536 48.7907 35.662 48.2217 34.0292C47.665 32.3964 47.3867 30.5533 47.3867 28.4999V27.2196C47.3867 25.1539 47.665 23.3108 48.2217 21.6903C48.7783 20.0575 49.5638 18.6659 50.5781 17.5155C51.6048 16.3651 52.8171 15.4869 54.2148 14.8808C55.625 14.2747 57.1774 13.9716 58.8721 13.9716C60.5791 13.9716 62.1315 14.2747 63.5293 14.8808C64.9395 15.4869 66.1517 16.3651 67.166 17.5155C68.1927 18.6659 68.9844 20.0575 69.541 21.6903C70.11 23.3108 70.3945 25.1539 70.3945 27.2196ZM64.7725 28.4999V27.1825C64.7725 25.7476 64.6426 24.4859 64.3828 23.3974C64.123 22.3088 63.7396 21.3935 63.2324 20.6513C62.7253 19.9091 62.1068 19.3525 61.377 18.9814C60.6471 18.5979 59.8122 18.4062 58.8721 18.4062C57.932 18.4062 57.097 18.5979 56.3672 18.9814C55.6497 19.3525 55.0374 19.9091 54.5303 20.6513C54.0355 21.3935 53.6582 22.3088 53.3984 23.3974C53.1387 24.4859 53.0088 25.7476 53.0088 27.1825V28.4999C53.0088 29.9224 53.1387 31.1842 53.3984 32.2851C53.6582 33.3736 54.0417 34.2952 54.5488 35.0497C55.056 35.7919 55.6745 36.3547 56.4043 36.7382C57.1341 37.1217 57.9691 37.3134 58.9092 37.3134C59.8493 37.3134 60.6842 37.1217 61.4141 36.7382C62.1439 36.3547 62.7562 35.7919 63.251 35.0497C63.7458 34.2952 64.123 33.3736 64.3828 32.2851C64.6426 31.1842 64.7725 29.9224 64.7725 28.4999ZM79.4121 25.661V41.3583H74.0684V21.2821H79.0967L79.4121 25.661ZM85.4609 21.1523L85.3682 26.1064C85.1084 26.0692 84.793 26.0383 84.4219 26.0136C84.0632 25.9765 83.7354 25.9579 83.4385 25.9579C82.6839 25.9579 82.0283 26.0569 81.4717 26.2548C80.9274 26.4403 80.4697 26.7187 80.0986 27.0898C79.7399 27.4608 79.4678 27.9123 79.2822 28.4442C79.109 28.9761 79.0101 29.5823 78.9854 30.2626L77.9092 29.9286C77.9092 28.6298 78.0391 27.4361 78.2988 26.3476C78.5586 25.2467 78.9359 24.288 79.4307 23.4716C79.9378 22.6552 80.5563 22.0243 81.2861 21.579C82.016 21.1337 82.8509 20.911 83.791 20.911C84.0879 20.911 84.391 20.9358 84.7002 20.9853C85.0094 21.0224 85.263 21.078 85.4609 21.1523ZM100.323 21.2821H105.166V40.6903C105.166 42.5211 104.758 44.0735 103.941 45.3476C103.137 46.634 102.012 47.6051 100.564 48.2607C99.1172 48.9286 97.4349 49.2626 95.5176 49.2626C94.6764 49.2626 93.7858 49.1513 92.8457 48.9286C91.918 48.706 91.0273 48.3596 90.1738 47.8896C89.3327 47.4195 88.6276 46.8258 88.0586 46.1083L90.415 42.954C91.0335 43.6715 91.751 44.2281 92.5674 44.6239C93.3838 45.0321 94.2868 45.2362 95.2764 45.2362C96.2412 45.2362 97.0576 45.0569 97.7256 44.6982C98.3936 44.3518 98.9069 43.8385 99.2656 43.1581C99.6243 42.4901 99.8037 41.6799 99.8037 40.7275V25.9208L100.323 21.2821ZM86.8154 31.5614V31.1718C86.8154 29.6379 87.001 28.2463 87.3721 26.997C87.7555 25.7353 88.2936 24.6529 88.9863 23.7499C89.6914 22.8469 90.5449 22.148 91.5469 21.6532C92.5488 21.1584 93.6807 20.911 94.9424 20.911C96.2783 20.911 97.3978 21.1584 98.3008 21.6532C99.2038 22.148 99.946 22.8531 100.527 23.7685C101.109 24.6715 101.56 25.7414 101.882 26.9784C102.216 28.203 102.476 29.5452 102.661 31.0048V31.8583C102.476 33.2561 102.197 34.5549 101.826 35.7548C101.455 36.9547 100.966 38.0061 100.36 38.9091C99.7542 39.7997 98.9997 40.4924 98.0967 40.9872C97.2061 41.482 96.1423 41.7294 94.9053 41.7294C93.6683 41.7294 92.5488 41.4758 91.5469 40.9687C90.5573 40.4615 89.71 39.7502 89.0049 38.8349C88.2998 37.9195 87.7555 36.8433 87.3721 35.6064C87.001 34.3694 86.8154 33.0211 86.8154 31.5614ZM92.1592 31.1718V31.5614C92.1592 32.3902 92.2396 33.1633 92.4004 33.8808C92.5612 34.5982 92.8086 35.2353 93.1426 35.7919C93.4889 36.3362 93.9157 36.7629 94.4229 37.0722C94.9424 37.3691 95.5547 37.5175 96.2598 37.5175C97.237 37.5175 98.0348 37.3134 98.6533 36.9052C99.2718 36.4846 99.7357 35.9094 100.045 35.1796C100.354 34.4498 100.534 33.6086 100.583 32.6562V30.2255C100.558 29.4462 100.453 28.7473 100.268 28.1288C100.082 27.498 99.8223 26.9599 99.4883 26.5146C99.1543 26.0692 98.7214 25.7229 98.1895 25.4755C97.6576 25.2281 97.0267 25.1044 96.2969 25.1044C95.5918 25.1044 94.9795 25.2652 94.46 25.5868C93.9528 25.8961 93.526 26.3228 93.1797 26.8671C92.8457 27.4114 92.5921 28.0546 92.4189 28.7968C92.2458 29.5266 92.1592 30.3183 92.1592 31.1718ZM120.158 36.831V27.8876C120.158 27.2444 120.053 26.6939 119.843 26.2362C119.632 25.7662 119.305 25.4013 118.859 25.1415C118.426 24.8817 117.864 24.7519 117.171 24.7519C116.577 24.7519 116.064 24.857 115.631 25.0673C115.198 25.2652 114.864 25.5559 114.629 25.9394C114.394 26.3105 114.276 26.7496 114.276 27.2567H108.933C108.933 26.4032 109.131 25.593 109.526 24.8261C109.922 24.0592 110.497 23.385 111.252 22.8036C112.007 22.2099 112.903 21.746 113.942 21.412C114.994 21.078 116.169 20.911 117.468 20.911C119.026 20.911 120.412 21.1708 121.624 21.6903C122.836 22.2099 123.789 22.9892 124.481 24.0282C125.187 25.0673 125.539 26.3661 125.539 27.9247V36.5155C125.539 37.6164 125.607 38.5194 125.743 39.2245C125.879 39.9172 126.077 40.5233 126.337 41.0429V41.3583H120.938C120.678 40.814 120.48 40.1337 120.344 39.3173C120.22 38.4885 120.158 37.6597 120.158 36.831ZM120.863 29.1308L120.9 32.1552H117.913C117.208 32.1552 116.596 32.2356 116.076 32.3964C115.557 32.5572 115.13 32.786 114.796 33.0829C114.462 33.3674 114.215 33.7014 114.054 34.0849C113.905 34.4683 113.831 34.8889 113.831 35.3466C113.831 35.8043 113.936 36.2187 114.146 36.5898C114.357 36.9485 114.66 37.233 115.056 37.4433C115.451 37.6412 115.915 37.7401 116.447 37.7401C117.251 37.7401 117.95 37.5793 118.544 37.2577C119.138 36.9361 119.595 36.5403 119.917 36.0702C120.251 35.6002 120.424 35.1549 120.437 34.7343L121.847 36.998C121.649 37.5051 121.377 38.0308 121.03 38.5751C120.696 39.1194 120.27 39.6327 119.75 40.1151C119.23 40.5852 118.606 40.9748 117.876 41.2841C117.146 41.581 116.28 41.7294 115.278 41.7294C114.004 41.7294 112.848 41.4758 111.809 40.9687C110.782 40.4491 109.965 39.7379 109.359 38.8349C108.766 37.9195 108.469 36.8804 108.469 35.7177C108.469 34.6663 108.667 33.7323 109.062 32.9159C109.458 32.0995 110.04 31.413 110.807 30.8564C111.586 30.2873 112.557 29.8606 113.72 29.5761C114.882 29.2792 116.231 29.1308 117.765 29.1308H120.863ZM134.891 25.5683V41.3583H129.547V21.2821H134.557L134.891 25.5683ZM134.111 30.6151H132.664C132.664 29.1308 132.856 27.7948 133.239 26.6073C133.623 25.4075 134.161 24.387 134.854 23.5458C135.546 22.6923 136.369 22.0429 137.321 21.5976C138.286 21.1399 139.362 20.911 140.55 20.911C141.49 20.911 142.35 21.0471 143.129 21.3192C143.908 21.5914 144.576 22.0243 145.133 22.6181C145.702 23.2118 146.135 23.9973 146.432 24.9745C146.741 25.9517 146.896 27.1454 146.896 28.5556V41.3583H141.515V28.537C141.515 27.6464 141.391 26.9537 141.144 26.4589C140.896 25.9641 140.531 25.6178 140.049 25.4198C139.579 25.2095 138.997 25.1044 138.305 25.1044C137.587 25.1044 136.963 25.2467 136.431 25.5312C135.911 25.8157 135.478 26.2115 135.132 26.7187C134.798 27.2135 134.544 27.7948 134.371 28.4628C134.198 29.1308 134.111 29.8482 134.111 30.6151ZM156.6 21.2821V41.3583H151.237V21.2821H156.6ZM150.903 16.0497C150.903 15.2704 151.175 14.6272 151.72 14.12C152.264 13.6129 152.994 13.3593 153.909 13.3593C154.812 13.3593 155.536 13.6129 156.08 14.12C156.637 14.6272 156.915 15.2704 156.915 16.0497C156.915 16.829 156.637 17.4722 156.08 17.9794C155.536 18.4866 154.812 18.7401 153.909 18.7401C152.994 18.7401 152.264 18.4866 151.72 17.9794C151.175 17.4722 150.903 16.829 150.903 16.0497ZM169.31 37.5546C169.965 37.5546 170.547 37.4309 171.054 37.1835C171.561 36.9237 171.957 36.565 172.241 36.1073C172.538 35.6373 172.693 35.0868 172.705 34.456H177.733C177.721 35.8661 177.344 37.1217 176.602 38.2226C175.859 39.3111 174.864 40.1708 173.614 40.8017C172.365 41.4202 170.967 41.7294 169.421 41.7294C167.862 41.7294 166.502 41.4696 165.339 40.9501C164.188 40.4306 163.23 39.7131 162.463 38.7978C161.696 37.87 161.121 36.7939 160.737 35.5692C160.354 34.3323 160.162 33.0087 160.162 31.5985V31.0605C160.162 29.6379 160.354 28.3144 160.737 27.0898C161.121 25.8528 161.696 24.7766 162.463 23.8612C163.23 22.9335 164.188 22.2099 165.339 21.6903C166.489 21.1708 167.838 20.911 169.384 20.911C171.029 20.911 172.47 21.2265 173.707 21.8573C174.956 22.4882 175.934 23.3912 176.639 24.5663C177.356 25.7291 177.721 27.1083 177.733 28.704H172.705C172.693 28.036 172.55 27.4299 172.278 26.8857C172.019 26.3414 171.635 25.9084 171.128 25.5868C170.633 25.2528 170.021 25.0858 169.291 25.0858C168.512 25.0858 167.875 25.2528 167.38 25.5868C166.885 25.9084 166.502 26.3538 166.229 26.9228C165.957 27.4794 165.766 28.1164 165.654 28.8339C165.555 29.539 165.506 30.2812 165.506 31.0605V31.5985C165.506 32.3778 165.555 33.1262 165.654 33.8437C165.753 34.5611 165.939 35.1982 166.211 35.7548C166.495 36.3114 166.885 36.7506 167.38 37.0722C167.875 37.3938 168.518 37.5546 169.31 37.5546ZM186.176 12.8398V41.3583H180.832V12.8398H186.176ZM198.83 21.2821L190.109 31.2275L185.434 35.9589L183.485 32.0995L187.196 27.3866L192.41 21.2821H198.83ZM193.282 41.3583L187.345 32.081L191.037 28.8525L199.442 41.3583H193.282Z" fill="#274C5B"/>
<path d="M1.85071 41.9268H19.291H36.7313" stroke="#7EB693" stroke-width="2" stroke-miterlimit="10"/>
<path d="M5.79102 48.3574H19.291H32.791" stroke="#7EB693" stroke-width="2" stroke-miterlimit="10"/>
<path d="M18.791 1.35742V8.35742V15.3574" stroke="#7EB693" stroke-width="2" stroke-miterlimit="10"/>
<path d="M18.8656 14.6426V41.0742" stroke="#7EB693" stroke-width="2" stroke-miterlimit="10"/>
<path d="M29.9253 4.41016L18.8656 15.4944" stroke="#7EB693" stroke-width="2" stroke-miterlimit="10"/>
<path d="M34.179 8.67383L18.8656 24.0212" stroke="#7EB693" stroke-width="2" stroke-miterlimit="10"/>
<path d="M36.7313 15.4941L18.8656 32.5468" stroke="#7EB693" stroke-width="2" stroke-miterlimit="10"/>
<path d="M37.582 23.1689L18.8656 41.9268" stroke="#7EB693" stroke-width="2" stroke-miterlimit="10"/>
<path d="M37.5821 31.6943L27.3731 41.9259" stroke="#7EB693" stroke-width="2" stroke-miterlimit="10"/>
<path d="M1 31.6943L11.209 41.9259" stroke="#7EB693" stroke-width="2" stroke-miterlimit="10"/>
<path d="M8.65668 4.41016L18.8656 15.4944" stroke="#7EB693" stroke-width="2" stroke-miterlimit="10"/>
<path d="M4.40295 8.67383L18.8656 24.0212" stroke="#7EB693" stroke-width="2" stroke-miterlimit="10"/>
<path d="M1.85071 14.6426L18.8656 32.5479" stroke="#7EB693" stroke-width="2" stroke-miterlimit="10"/>
<path d="M1 22.3154L18.8657 41.0733" stroke="#7EB693" stroke-width="2" stroke-miterlimit="10"/>
<path d="M19.291 54.7158C9.19019 54.7158 1 46.2635 1 35.8351V19.8806C1 9.45419 9.19019 1 19.291 1C29.3937 1 37.5821 9.45419 37.5821 19.8806V35.8351C37.5839 46.2635 29.3937 54.7158 19.291 54.7158Z" stroke="#7EB693" stroke-width="2" stroke-miterlimit="10"/>
</g>
<defs>
<clipPath id="clip0_1_486">
<rect width="200" height="56" fill="white"/>
</clipPath>
</defs>
</svg>

<svg xmlns="http://www.w3.org/2000/svg" width="200" height="56" fill="none" viewBox="0 0 200 56"><g clip-path="url(#a)"><path fill="#274c5b" d="M70.395 27.22v1.28q0 3.08-.835 5.53-.836 2.448-2.357 4.174a10.2 10.2 0 0 1-3.637 2.616q-2.096.91-4.657.91-2.541 0-4.657-.91a10.4 10.4 0 0 1-3.637-2.616q-1.54-1.725-2.393-4.175-.835-2.45-.835-5.53v-1.28q0-3.098.835-5.529.835-2.449 2.356-4.175a10.3 10.3 0 0 1 3.637-2.634q2.115-.91 4.657-.91 2.561 0 4.657.91a10.1 10.1 0 0 1 3.637 2.634q1.54 1.726 2.375 4.175.853 2.43.853 5.53m-5.623 1.28v-1.317q0-2.152-.39-3.786-.388-1.632-1.15-2.746-.76-1.113-1.855-1.67-1.095-.575-2.505-.575t-2.505.575q-1.076.557-1.837 1.67-.742 1.114-1.132 2.746-.39 1.633-.39 3.786V28.5q0 2.133.39 3.785.39 1.633 1.15 2.765.762 1.113 1.856 1.688 1.095.576 2.505.575 1.41 0 2.505-.575t1.837-1.688q.742-1.132 1.132-2.765.39-1.651.39-3.785m14.64-2.839v15.697h-5.344V21.282h5.029zm6.049-4.509-.093 4.954a13 13 0 0 0-.946-.092 10 10 0 0 0-.983-.056q-1.132 0-1.967.297a3.5 3.5 0 0 0-1.373.835q-.539.556-.817 1.354a6.7 6.7 0 0 0-.297 1.819l-1.076-.334q0-1.95.39-3.581.39-1.652 1.132-2.876.76-1.226 1.855-1.893 1.095-.668 2.505-.668.445 0 .91.074.463.056.76.167m14.862.13h4.843V40.69q0 2.747-1.225 4.658-1.206 1.929-3.377 2.913-2.171 1.002-5.046 1.002-1.263 0-2.672-.334a10.7 10.7 0 0 1-2.672-1.04 7.1 7.1 0 0 1-2.115-1.78l2.356-3.155a6.7 6.7 0 0 0 2.152 1.67q1.225.612 2.71.612 1.446 0 2.449-.538a3.56 3.56 0 0 0 1.54-1.54q.537-1.002.538-2.43V25.92zm-13.508 10.28v-.39q0-2.301.557-4.175.575-1.893 1.614-3.247a7.34 7.34 0 0 1 2.56-2.097q1.505-.742 3.396-.742 2.004 0 3.359.742t2.226 2.116q.873 1.354 1.355 3.21a29 29 0 0 1 .779 4.026v.853a24 24 0 0 1-.835 3.897q-.557 1.8-1.466 3.154a6.5 6.5 0 0 1-2.263 2.078q-1.336.742-3.192.742-1.855 0-3.358-.76a7.5 7.5 0 0 1-2.542-2.134q-1.058-1.374-1.633-3.229-.557-1.855-.557-4.045m5.344-.39v.39q0 1.242.241 2.319.242 1.076.743 1.91.52.817 1.28 1.281.78.445 1.837.445 1.466 0 2.393-.612.928-.63 1.392-1.725t.538-2.524v-2.43q-.037-1.17-.315-2.097-.279-.947-.78-1.614a3.4 3.4 0 0 0-1.299-1.04q-.797-.37-1.892-.37-1.057 0-1.837.482-.76.465-1.28 1.28-.501.816-.761 1.93a10.3 10.3 0 0 0-.26 2.375m27.999 5.659v-8.943q0-.965-.315-1.652a2.35 2.35 0 0 0-.984-1.094q-.649-.39-1.688-.39-.89 0-1.54.315a2.23 2.23 0 0 0-1.002.872q-.353.557-.353 1.318h-5.343q0-1.281.593-2.43.594-1.152 1.726-2.023 1.132-.891 2.69-1.392 1.578-.501 3.526-.501 2.337 0 4.156.78 1.819.779 2.857 2.337 1.059 1.56 1.058 3.897v8.59q0 1.651.204 2.71.204 1.038.594 1.818v.315h-5.399q-.39-.816-.594-2.04a17 17 0 0 1-.186-2.487m.705-7.7.037 3.024h-2.987q-1.057 0-1.837.241-.779.242-1.28.687a2.65 2.65 0 0 0-.742 1.002 3.5 3.5 0 0 0-.223 1.262q0 .686.315 1.243.316.537.91.853.593.297 1.391.297 1.206 0 2.097-.482.89-.483 1.373-1.188.5-.705.52-1.336l1.41 2.264a9 9 0 0 1-.817 1.577 7.4 7.4 0 0 1-1.28 1.54q-.78.705-1.874 1.17-1.095.444-2.598.444-1.91 0-3.469-.76-1.54-.78-2.45-2.134-.89-1.374-.89-3.117 0-1.578.593-2.802a5.5 5.5 0 0 1 1.745-2.06q1.168-.853 2.913-1.28 1.744-.445 4.045-.445zm14.028-3.563v15.79h-5.344V21.282h5.01zm-.78 5.047h-1.447q0-2.226.575-4.008.576-1.8 1.615-3.061a6.9 6.9 0 0 1 2.467-1.948q1.447-.687 3.229-.687 1.41 0 2.579.408a4.94 4.94 0 0 1 2.004 1.3q.853.89 1.299 2.355.464 1.466.464 3.582v12.802h-5.381v-12.82q0-1.335-.371-2.078-.372-.742-1.095-1.04-.706-.315-1.744-.315-1.077 0-1.874.427-.78.427-1.299 1.188a5.6 5.6 0 0 0-.761 1.744 8.6 8.6 0 0 0-.26 2.152m22.489-9.333v20.076h-5.363V21.282zm-5.697-5.232q0-1.17.817-1.93.816-.76 2.189-.76 1.355 0 2.171.76.835.76.835 1.93 0 1.168-.835 1.93-.816.76-2.171.76-1.373 0-2.189-.76-.817-.762-.817-1.93m18.407 21.505q.983 0 1.744-.371.76-.39 1.187-1.077.446-.705.464-1.651h5.028q-.018 2.115-1.131 3.767-1.114 1.632-2.988 2.579-1.874.927-4.193.927-2.338 0-4.082-.779-1.726-.78-2.876-2.152-1.15-1.392-1.726-3.229-.575-1.855-.575-3.97v-.538q0-2.135.575-3.971.576-1.855 1.726-3.229a7.9 7.9 0 0 1 2.876-2.17q1.726-.78 4.045-.78 2.468 0 4.323.946a7.05 7.05 0 0 1 2.932 2.71q1.076 1.743 1.094 4.137h-5.028a4.2 4.2 0 0 0-.427-1.818 3.07 3.07 0 0 0-1.15-1.3q-.742-.5-1.837-.5-1.168 0-1.911.5a3.2 3.2 0 0 0-1.151 1.337 6.7 6.7 0 0 0-.575 1.91 16 16 0 0 0-.148 2.228v.538q0 1.168.148 2.245.149 1.076.557 1.91.426.836 1.169 1.318.742.483 1.93.483m16.866-24.715v28.518h-5.344V12.84zm12.654 8.442-8.721 9.946-4.675 4.73-1.949-3.858 3.711-4.713 5.214-6.105zm-5.548 20.076-5.937-9.277 3.692-3.229 8.405 12.506z"/><path stroke="#7eb693" stroke-miterlimit="10" stroke-width="2" d="M1.85 41.927h34.881m-30.94 6.43h27m-14-47v14m.075-.714v26.431M29.925 4.41l-11.06 11.084m15.314-6.82L18.866 24.02m17.865-8.526L18.866 32.547m18.716-9.378L18.866 41.927m18.716-10.233L27.373 41.926M1 31.694l10.209 10.232M8.657 4.41l10.209 11.084M4.403 8.674 18.866 24.02M1.85 14.643l17.016 17.905M1 22.315l17.866 18.758m.425 13.643C9.191 54.716 1 46.264 1 35.836V19.88C1 9.454 9.19 1 19.291 1c10.103 0 18.291 8.454 18.291 18.88v15.955c.002 10.429-8.188 18.88-18.291 18.88Z"/></g><defs><clipPath id="a"><path fill="#fff" d="M0 0h200v56H0z"/></clipPath></defs></svg>
